#src/img/admin/icon__settings.svg

<svg width="25" height="24" viewBox="0 0 25 24" fill="none" xmlns="http://www.w3.org/2000/svg">
<path d="M21.0681 12.5699V11.9999V11.4224L22.5081 10.1624C22.7735 9.92848 22.9477 9.60821 22.9998 9.25824C23.052 8.90827 22.9788 8.55113 22.7931 8.24994L21.0231 5.24994C20.8915 5.02214 20.7024 4.83292 20.4747 4.70129C20.247 4.56965 19.9886 4.50021 19.7256 4.49994C19.5625 4.49869 19.4004 4.52402 19.2456 4.57494L17.4231 5.18994C17.1084 4.98084 16.7802 4.79293 16.4406 4.62744L16.0581 2.73744C15.9895 2.39214 15.8016 2.08197 15.5274 1.86122C15.2532 1.64046 14.91 1.52319 14.5581 1.52994H11.0481C10.6961 1.52319 10.3529 1.64046 10.0787 1.86122C9.80449 2.08197 9.61664 2.39214 9.54806 2.73744L9.16556 4.62744C8.82351 4.79289 8.49279 4.9808 8.17556 5.18994L6.39056 4.54494C6.23403 4.50416 6.07194 4.48896 5.91056 4.49994C5.64752 4.50021 5.38917 4.56965 5.16143 4.70129C4.9337 4.83292 4.74458 5.02214 4.61306 5.24994L2.84306 8.24994C2.668 8.55068 2.60295 8.90293 2.65905 9.24636C2.71515 9.58979 2.8889 9.90303 3.15056 10.1324L4.56806 11.4299V12.5774L3.15056 13.8374C2.88151 14.0684 2.703 14.3873 2.64671 14.7374C2.59042 15.0875 2.65998 15.4462 2.84306 15.7499L4.61306 18.7499C4.74458 18.9777 4.9337 19.167 5.16143 19.2986C5.38917 19.4302 5.64752 19.4997 5.91056 19.4999C6.07357 19.5012 6.2357 19.4759 6.39056 19.4249L8.21306 18.8099C8.52772 19.019 8.85594 19.2069 9.19556 19.3724L9.57806 21.2624C9.64664 21.6077 9.83449 21.9179 10.1087 22.1387C10.3829 22.3594 10.7261 22.4767 11.0781 22.4699H14.6181C14.97 22.4767 15.3132 22.3594 15.5874 22.1387C15.8616 21.9179 16.0495 21.6077 16.1181 21.2624L16.5006 19.3724C16.8426 19.207 17.1733 19.0191 17.4906 18.8099L19.3056 19.4249C19.4604 19.4759 19.6225 19.5012 19.7856 19.4999C20.0486 19.4997 20.307 19.4302 20.5347 19.2986C20.7624 19.167 20.9515 18.9777 21.0831 18.7499L22.7931 15.7499C22.9681 15.4492 23.0332 15.0969 22.9771 14.7535C22.921 14.4101 22.7472 14.0968 22.4856 13.8674L21.0681 12.5699ZM19.7256 17.9999L17.1531 17.1299C16.5509 17.64 15.8626 18.0387 15.1206 18.3074L14.5881 20.9999H11.0481L10.5156 18.3374C9.77938 18.0611 9.09485 17.6631 8.49056 17.1599L5.91056 17.9999L4.14056 14.9999L6.18056 13.1999C6.04188 12.4236 6.04188 11.6288 6.18056 10.8524L4.14056 8.99994L5.91056 5.99994L8.48306 6.86994C9.08526 6.35986 9.77351 5.96113 10.5156 5.69244L11.0481 2.99994H14.5881L15.1206 5.66244C15.8567 5.93876 16.5413 6.3368 17.1456 6.83994L19.7256 5.99994L21.4956 8.99994L19.4556 10.7999C19.5942 11.5763 19.5942 12.3711 19.4556 13.1474L21.4956 14.9999L19.7256 17.9999Z" fill="#CA583E"/>
<path d="M12.8181 16.5C11.9281 16.5 11.0581 16.2361 10.3181 15.7416C9.57803 15.2471 9.00125 14.5443 8.66066 13.7221C8.32007 12.8998 8.23095 11.995 8.40458 11.1221C8.57822 10.2492 9.0068 9.44736 9.63614 8.81802C10.2655 8.18868 11.0673 7.7601 11.9402 7.58647C12.8131 7.41283 13.7179 7.50195 14.5402 7.84254C15.3625 8.18314 16.0653 8.75991 16.5597 9.49994C17.0542 10.24 17.3181 11.11 17.3181 12C17.3241 12.5926 17.2118 13.1805 16.9878 13.7292C16.7638 14.2779 16.4326 14.7763 16.0135 15.1954C15.5944 15.6145 15.096 15.9457 14.5473 16.1697C13.9986 16.3937 13.4107 16.506 12.8181 16.5V16.5ZM12.8181 9C12.4216 8.99077 12.0274 9.06205 11.6592 9.20954C11.2911 9.35704 10.9567 9.57768 10.6762 9.85812C10.3958 10.1386 10.1752 10.473 10.0277 10.8411C9.88017 11.2093 9.80888 11.6035 9.81812 12C9.80888 12.3965 9.88017 12.7907 10.0277 13.1589C10.1752 13.527 10.3958 13.8614 10.6762 14.1419C10.9567 14.4223 11.2911 14.643 11.6592 14.7905C12.0274 14.938 12.4216 15.0092 12.8181 15C13.2146 15.0092 13.6089 14.938 13.977 14.7905C14.3452 14.643 14.6796 14.4223 14.96 14.1419C15.2404 13.8614 15.4611 13.527 15.6086 13.1589C15.7561 12.7907 15.8274 12.3965 15.8181 12C15.8274 11.6035 15.7561 11.2093 15.6086 10.8411C15.4611 10.473 15.2404 10.1386 14.96 9.85812C14.6796 9.57768 14.3452 9.35704 13.977 9.20954C13.6089 9.06205 13.2146 8.99077 12.8181 9Z" fill="#CA583E"/>
</svg>

<svg width="25" height="24" fill="none" xmlns="http://www.w3.org/2000/svg"><path d="M21.068 12.57v-1.148l1.44-1.26a1.5 1.5 0 00.285-1.912l-1.77-3a1.5 1.5 0 00-1.297-.75 1.5 1.5 0 00-.48.075l-1.823.615a8.517 8.517 0 00-.982-.563l-.383-1.89a1.5 1.5 0 00-1.5-1.207h-3.51a1.5 1.5 0 00-1.5 1.207l-.382 1.89a8.61 8.61 0 00-.99.563L6.39 4.545a1.5 1.5 0 00-.48-.045 1.5 1.5 0 00-1.298.75l-1.77 3a1.5 1.5 0 00.308 1.882l1.417 1.298v1.147l-1.417 1.26a1.5 1.5 0 00-.308 1.913l1.77 3a1.5 1.5 0 001.298.75c.163.001.325-.024.48-.075l1.822-.615c.315.209.643.397.983.562l.382 1.89a1.5 1.5 0 001.5 1.208h3.54a1.5 1.5 0 001.5-1.208l.383-1.89a8.63 8.63 0 00.99-.562l1.815.615c.154.05.316.076.48.075a1.5 1.5 0 001.297-.75l1.71-3a1.5 1.5 0 00-.307-1.883l-1.418-1.297zM19.726 18l-2.573-.87c-.602.51-1.29.909-2.032 1.177L14.588 21h-3.54l-.532-2.663A7.018 7.018 0 018.49 17.16L5.91 18l-1.77-3 2.04-1.8a6.675 6.675 0 010-2.348L4.14 9l1.77-3 2.572.87a6.645 6.645 0 012.033-1.178L11.048 3h3.54l.533 2.662c.736.277 1.42.675 2.025 1.178l2.58-.84 1.77 3-2.04 1.8a6.679 6.679 0 010 2.347L21.496 15l-1.77 3z" fill="#CA583E"/><path d="M12.818 16.5a4.5 4.5 0 114.5-4.5 4.456 4.456 0 01-4.5 4.5zm0-7.5a2.933 2.933 0 00-3 3 2.932 2.932 0 003 3 2.933 2.933 0 003-3 2.931 2.931 0 00-3-3z" fill="#CA583E"/></svg>
